mastercard.svg

<svg viewBox="0 0 24 24" xmlns="http://www.w3.org/2000/svg"><path d="M8.75536 6.16996L15.2446 6.16996L15.2446 6.16996L15.2446 17.83L15.2446 17.83L8.75536 17.83L8.75536 17.83L8.75536 6.16996L8.75536 6.16996Z" fill="#ff5f00"/><path d="M9.16738 12C9.16738 9.6309 10.2798 7.52961 11.9897 6.16996C10.733 5.18112 9.14678 4.58369 7.41631 4.58369C3.31674 4.58369 1.77636e-15 7.90043 1.77636e-15 12C1.77636e-15 16.0996 3.31674 19.4163 7.41631 19.4163C9.14678 19.4163 10.733 18.8189 11.9897 17.83C10.2798 16.491 9.16738 14.3691 9.16738 12Z" fill="#eb001b"/><path d="M24 12C24 16.0996 20.6833 19.4163 16.5837 19.4163C14.8532 19.4163 13.267 18.8189 12.0103 17.83C13.7408 16.4704 14.8326 14.3691 14.8326 12C14.8326 9.6309 13.7202 7.52961 12.0103 6.16996C13.267 5.18112 14.8532 4.58369 16.5837 4.58369C20.6833 4.58369 24 7.92103 24 12Z" fill="#f79e1b"/></svg>

<svg viewBox="0 0 24 24" xmlns="http://www.w3.org/2000/svg"><path d="M8.755 6.17h6.49v11.66h-6.49V6.17Z" fill="#ff5f00"/><path d="M9.167 12c0-2.37 1.113-4.47 2.823-5.83a7.37 7.37 0 0 0-4.574-1.586A7.412 7.412 0 0 0 0 12c0 4.1 3.317 7.416 7.416 7.416a7.37 7.37 0 0 0 4.574-1.586A7.405 7.405 0 0 1 9.167 12Z" fill="#eb001b"/><path d="M24 12c0 4.1-3.317 7.416-7.416 7.416a7.37 7.37 0 0 1-4.574-1.586A7.374 7.374 0 0 0 14.833 12c0-2.37-1.113-4.47-2.823-5.83a7.37 7.37 0 0 1 4.574-1.586C20.684 4.584 24 7.92 24 12Z" fill="#f79e1b"/></svg>
